X:80
T:Reel of Rio, The
M:4/4
L:1/8
Z:Philippe Varlet
K:G
E|DEGA ~B3 d|eg~g2 agea|gede {a}gedB|(3ABc BA GE~E2|
DEGA ~B3 d|eg~g2 agea|gede {a}gedB|(3ABc BA ~G3 :||
B|dg~g2 ag~g2|bg~g2 ed (3Bcd |eB{d}BA GABd|gedB AGEG|
DEGA ~B3 d|eg~g2 agea|gede {a}gedB|(3ABc BA ~G3 :||

